X:1
T:Ascending Song, CM
T:Alfred George Wathall, 1905
T:Ascending Song, CM
T:Public Domain
C:Alfred George Wathall, 1905
Z:Public Domain
%%score ( 1 2 ) ( 3 4 )
L:1/8
M:4/4
K:Db
V:1 treble 
V:2 treble 
V:3 bass 
V:4 bass 
V:1
 [DF]2 | [DF]3 [DF] [DF]2 [DG]2 | [EA]3 [EA] [EA]2 [EA]2 | [FB]3 [Bc] [Bd]2 [=Ge]2 | %4
 (e4 c2) [Ad]2 | [Ac]3 [GB] [GB]2 [Gc]2 | [FB]3 [FA] [FA]2 [FB]2 | [FA]2 [EG]2 [GB]2 ([FA][EG]) | %8
 [DF]6 |] %9
V:2
 x2 | x8 | x8 | x8 | A6 x2 | x8 | x8 | x8 | x6 |] %9
V:3
 [D,A,]2 | [D,A,]3 [D,A,] [D,A,]2 [D,B,]2 | [C,C]3 [C,C] [C,C]2 [C,C]2 | %3
 [B,,D]3 [B,,E] [B,F]2 [B,D]2 | (F4 E2) [F,D]2 | [G,D]3 [G,D] [G,D]2 [E,C]2 | %6
 [F,C]3 [F,C] [F,C]2 [D,B,]2 | [E,B,]2 [E,B,]2 [A,,C]2 [A,,C]2 | [D,A,]6 |] %9
V:4
 x2 | x8 | x8 | x8 | A,6 x2 | x8 | x8 | x8 | x6 |] %9

